X: 6225
T: Carmel Mahoney Mulhaire
R: reel
M: 4/4
K: Cmajor
|:G~E3 CEG,E|C~E3 GAcd|ecgc acgc|^cdfd BG (3A^GB|
cAA^G A=GED|C2EC G,CEG|A~F3 dGBd|1 egdB cBcA:|2 egdB c2 gf||
|:e2e^d eged|c~e3 g~e3|cegc' e'c'ge|fdd^c dGcd|
e2e^d eged|c~e3 gceg|f2fe fagf|1 efed c2 gf:|2 efed c2 ef||
|:g~G3 EGcd|ec'bc' agfe|fdd^c d=cBA|G2^FA G2 ef|
g~G3 EGcd|ec'bc' agfe|fdd^c d=cBA|1 GEFD C2 ef:|2 GEFD C2 GF||
|:E~G3 (3EFG CE|GCEG ageg|f2ef (3def cA|GdBG ^FG=FG|
E~G3 (3EFG CE|GCEG ageg|f2ef (3def cd|1 BG (3A^AB cBcG:|2 BG (3A^AB cBc=A||

